icons/actions/22/view-split-top-bottom.svg

<svg xmlns="http://www.w3.org/2000/svg" viewBox="0 0 22 22">
  <defs id="defs3051">
    <style type="text/css" id="current-color-scheme">
      .ColorScheme-Text {
        color:#4d4d4d;
      }
      </style>
  </defs>
 <path 
    style="fill:currentColor;fill-opacity:1;stroke:none" 
    d="m3 3v7 1h1 4 1 9 1v-1-7h-16m1 4h4v3h-4v-3m5 0h9v3h-9v-3m-6 6v1 5h16v-5-1h-16m1 1h4v4h-4v-4m5 0h9v4h-9v-4"
	class="ColorScheme-Text"
    />  
</svg>

<?xml version="1.0"?>
<!-- Created with Inkscape (http://www.inkscape.org/) -->
<svg xmlns:dc="http://purl.org/dc/elements/1.1/" xmlns:cc="http://creativecommons.org/ns#" xmlns:rdf="http://www.w3.org/1999/02/22-rdf-syntax-ns#" xmlns:svg="http://www.w3.org/2000/svg" xmlns="http://www.w3.org/2000/svg" xmlns:sodipodi="http://sodipodi.sourceforge.net/DTD/sodipodi-0.dtd" xmlns:inkscape="http://www.inkscape.org/namespaces/inkscape" width="22" height="22" id="svg3049" version="1.1" inkscape:version="0.48+devel r" sodipodi:docname="view-split-top-bottom.svg" inkscape:export-filename="/home/uri/.kde/share/icons/NITRUX-KDE/16x16/actions/view-right-new.png" inkscape:export-xdpi="30" inkscape:export-ydpi="30">
  <defs id="defs3051">
    <style type="text/css" id="current-color-scheme">
      .ColorScheme-Text {
        color:#4d4d4d;
      }
      .ColorScheme-Background {
        color:#eff0f1;
      }
      .ColorScheme-Highlight {
        color:#3daee9;
      }
      .ColorScheme-ViewText {
        color:#31363b;
      }
      .ColorScheme-ViewBackground {
        color:#fcfcfc;
      }
      .ColorScheme-ViewHover {
        color:#93cee9;
      }
      .ColorScheme-ViewFocus{
        color:#3daee9;
      }
      .ColorScheme-ButtonText {
        color:#31363b;
      }
      .ColorScheme-ButtonBackground {
        color:#eff0f1;
      }
      .ColorScheme-ButtonHover {
        color:#93cee9;
      }
      .ColorScheme-ButtonFocus{
        color:#3daee9;
      }
      </style>
  </defs>
  <sodipodi:namedview id="base" pagecolor="#ffffff" bordercolor="#666666" borderopacity="1.0" inkscape:pageopacity="0.0" inkscape:pageshadow="2" inkscape:zoom="24.411306" inkscape:cx="5.509899" inkscape:cy="12.41131" inkscape:document-units="px" inkscape:current-layer="layer1" showgrid="true" fit-margin-top="0" fit-margin-left="0" fit-margin-right="0" fit-margin-bottom="0" inkscape:window-width="1366" inkscape:window-height="718" inkscape:window-x="-2" inkscape:window-y="23" inkscape:window-maximized="1" inkscape:showpageshadow="false" borderlayer="true">
    <sodipodi:guide position="2.0000044,20.00003" orientation="18,0" id="guide4067"/>
    <sodipodi:guide position="2.0000044,2.0000296" orientation="0,18" id="guide4069"/>
    <sodipodi:guide position="20.000004,2.0000296" orientation="-18,0" id="guide4071"/>
    <sodipodi:guide position="20.000004,20.00003" orientation="0,-18" id="guide4073"/>
    <sodipodi:guide position="3.0000044,19.00003" orientation="16,0" id="guide4077"/>
    <sodipodi:guide position="3.0000044,3.0000296" orientation="0,16" id="guide4079"/>
    <sodipodi:guide position="19.000004,3.0000296" orientation="-16,0" id="guide4081"/>
    <sodipodi:guide position="19.000004,19.00003" orientation="0,-16" id="guide4083"/>
    <inkscape:grid type="xygrid" id="grid4085"/>
  </sodipodi:namedview>
  <metadata id="metadata3054">
    <rdf:RDF>
      <cc:Work rdf:about="">
        <dc:format>image/svg+xml</dc:format>
        <dc:type rdf:resource="http://purl.org/dc/dcmitype/StillImage"/>
        <dc:title/>
      </cc:Work>
    </rdf:RDF>
  </metadata>
  <g inkscape:label="Capa 1" inkscape:groupmode="layer" id="layer1" transform="translate(-421.71429,-525.79074)">
    <path style="fill:currentColor;fill-opacity:1;stroke:none" d="M 3 3 L 3 10 L 3 11 L 4 11 L 8 11 L 9 11 L 18 11 L 19 11 L 19 10 L 19 3 L 3 3 z M 4 7 L 8 7 L 8 10 L 4 10 L 4 7 z M 9 7 L 18 7 L 18 10 L 9 10 L 9 7 z M 3 13 L 3 14 L 3 19 L 19 19 L 19 14 L 19 13 L 3 13 z M 4 14 L 8 14 L 8 18 L 4 18 L 4 14 z M 9 14 L 18 14 L 18 18 L 9 18 L 9 14 z " transform="translate(421.71429,525.79074)" id="rect4089" class="ColorScheme-Text"/>
  </g>
</svg>
